src/icons/powerpoint.svg

<svg viewBox="0 0 24 24" xmlns="http://www.w3.org/2000/svg">
  <path
    d="M6 2H14L20 8V20C20 20.5304 19.7893 21.0391 19.4142 21.4142C19.0391 21.7893 18.5304 22 18 22H6C5.46957 22 4.96086 21.7893 4.58579 21.4142C4.21071 21.0391 4 20.5304 4 20V4C4 3.46957 4.21071 2.96086 4.58579 2.58579C4.96086 2.21071 5.46957 2 6 2ZM13 3.5V9H18.5L13 3.5ZM8 11V13H9V19H8V20H12V19H11V17H13C13.7956 17 14.5587 16.6839 15.1213 16.1213C15.6839 15.5587 16 14.7956 16 14C16 13.2044 15.6839 12.4413 15.1213 11.8787C14.5587 11.3161 13.7956 11 13 11H8ZM13 13C13.2652 13 13.5196 13.1054 13.7071 13.2929C13.8946 13.4804 14 13.7348 14 14C14 14.2652 13.8946 14.5196 13.7071 14.7071C13.5196 14.8946 13.2652 15 13 15H11V13H13Z"
    fill="#D14524"
  />
</svg>

<svg viewBox="0 0 24 24" xmlns="http://www.w3.org/2000/svg">
  <path
    d="M6 2h8l6 6v12a2 2 0 0 1-2 2H6a2 2 0 0 1-2-2V4a2 2 0 0 1 2-2m7 1.5V9h5.5L13 3.5M8 11v2h1v6H8v1h4v-1h-1v-2h2a3 3 0 0 0 3-3 3 3 0 0 0-3-3H8m5 2a1 1 0 0 1 1 1 1 1 0 0 1-1 1h-2v-2h2z"
    fill="#d14524"
  />
</svg>
